flaticon/business/store-1.svg

<svg xmlns="http://www.w3.org/2000/svg" width="32" height="32" viewBox="0 0 24 24">
    <path d="M 23.964844 4.683594 C 23.960938 4.640625 23.957031 4.597656 23.945312 4.554688 L 23.886719 4.570312 C 23.886719 4.570312 23.886719 4.570312 23.886719 4.566406 L 23.945312 4.550781 C 23.289062 2.144531 21.25 0.378906 18.800781 0.0546875 L 18.800781 0 L 6 0 C 3.226562 0.00390625 0.785156 1.875 0.0585938 4.542969 C 0.0429688 4.589844 0.0390625 4.632812 0.0390625 4.679688 C 0.015625 4.738281 0 4.796875 0 4.863281 L 0 24 L 24 24 L 24 4.863281 C 24 4.800781 23.988281 4.738281 23.964844 4.683594 Z M 18.371094 0.816406 C 20.519531 0.96875 22.363281 2.390625 23.0625 4.398438 L 17.917969 4.398438 C 17.542969 2.851562 16.5625 1.574219 15.253906 0.800781 L 17.992188 0.800781 Z M 17.199219 5.601562 C 17.199219 6.921875 16.125 8 14.800781 8 C 13.476562 8 12.398438 6.921875 12.398438 5.601562 L 12.398438 5.199219 L 17.199219 5.199219 Z M 6.800781 5.199219 L 11.601562 5.199219 L 11.601562 5.601562 C 11.601562 6.921875 10.523438 8 9.199219 8 C 7.875 8 6.800781 6.921875 6.800781 5.601562 Z M 12.398438 0.800781 C 14.605469 0.832031 16.503906 2.308594 17.097656 4.398438 L 12.398438 4.398438 Z M 11.601562 4.398438 L 6.902344 4.398438 C 7.496094 2.308594 9.394531 0.832031 11.601562 0.800781 Z M 6.007812 0.800781 L 8.746094 0.800781 C 7.4375 1.574219 6.457031 2.851562 6.082031 4.398438 L 0.9375 4.398438 C 1.683594 2.265625 3.714844 0.804688 6.007812 0.800781 Z M 0.800781 5.199219 L 6 5.199219 L 6 5.601562 C 6 6.921875 4.921875 8 3.601562 8 L 3.199219 8 C 1.875 8 0.800781 6.921875 0.800781 5.601562 Z M 21.601562 17.601562 L 16.398438 17.601562 L 16.398438 13.398438 C 16.398438 11.964844 17.566406 10.800781 19 10.800781 C 20.433594 10.800781 21.601562 11.964844 21.601562 13.398438 Z M 16.398438 23.199219 L 16.398438 18.398438 L 21.601562 18.398438 L 21.601562 23.199219 Z M 23.199219 7.714844 L 23.199219 23.199219 L 22.398438 23.199219 L 22.398438 13.398438 C 22.398438 11.523438 20.875 10 19 10 C 17.125 10 15.601562 11.523438 15.601562 13.398438 L 15.601562 21.601562 C 15.378906 21.601562 15.199219 21.777344 15.199219 22 C 15.199219 22.222656 15.378906 22.398438 15.601562 22.398438 L 15.601562 22.800781 L 15.199219 22.800781 C 14.980469 22.800781 14.800781 22.980469 14.800781 23.199219 L 14.398438 23.199219 C 14.398438 22.980469 14.222656 22.800781 14 22.800781 L 13.601562 22.800781 C 13.378906 22.800781 13.199219 22.980469 13.199219 23.199219 L 12.800781 23.199219 C 12.800781 22.980469 12.621094 22.800781 12.398438 22.800781 L 12 22.800781 C 11.777344 22.800781 11.601562 22.980469 11.601562 23.199219 L 11.199219 23.199219 C 11.199219 22.980469 11.019531 22.800781 10.800781 22.800781 L 10.398438 22.800781 C 10.179688 22.800781 10 22.980469 10 23.199219 L 9.601562 23.199219 C 9.601562 22.980469 9.421875 22.800781 9.199219 22.800781 L 8.800781 22.800781 C 8.578125 22.800781 8.398438 22.980469 8.398438 23.199219 L 8 23.199219 C 8 22.980469 7.820312 22.800781 7.601562 22.800781 L 7.199219 22.800781 C 6.980469 22.800781 6.800781 22.980469 6.800781 23.199219 L 6.398438 23.199219 C 6.398438 22.980469 6.222656 22.800781 6 22.800781 L 5.601562 22.800781 C 5.378906 22.800781 5.199219 22.980469 5.199219 23.199219 L 4.800781 23.199219 C 4.800781 22.980469 4.621094 22.800781 4.398438 22.800781 L 4 22.800781 C 3.777344 22.800781 3.601562 22.980469 3.601562 23.199219 L 3.199219 23.199219 C 3.199219 22.980469 3.019531 22.800781 2.800781 22.800781 L 2.398438 22.800781 C 2.179688 22.800781 2 22.980469 2 23.199219 L 1.601562 23.199219 C 1.601562 22.980469 1.421875 22.800781 1.199219 22.800781 L 0.800781 22.800781 L 0.800781 7.714844 C 0.820312 7.738281 0.84375 7.757812 0.863281 7.78125 C 0.90625 7.824219 0.945312 7.867188 0.988281 7.90625 C 1.023438 7.941406 1.058594 7.972656 1.09375 8.003906 C 1.140625 8.042969 1.1875 8.082031 1.234375 8.117188 C 1.269531 8.148438 1.308594 8.175781 1.347656 8.203125 C 1.394531 8.238281 1.445312 8.273438 1.496094 8.304688 C 1.535156 8.328125 1.578125 8.355469 1.617188 8.378906 C 1.671875 8.410156 1.726562 8.4375 1.78125 8.464844 C 1.820312 8.484375 1.863281 8.507812 1.90625 8.523438 C 1.964844 8.550781 2.023438 8.574219 2.082031 8.59375 C 2.125 8.609375 2.167969 8.628906 2.210938 8.640625 C 2.273438 8.664062 2.339844 8.679688 2.402344 8.695312 C 2.445312 8.707031 2.484375 8.71875 2.527344 8.726562 C 2.601562 8.742188 2.675781 8.753906 2.75 8.765625 C 2.785156 8.769531 2.820312 8.777344 2.859375 8.78125 C 2.972656 8.792969 3.085938 8.800781 3.199219 8.800781 L 3.601562 8.800781 C 3.734375 8.800781 3.867188 8.789062 4 8.773438 C 4.035156 8.769531 4.074219 8.761719 4.109375 8.753906 C 4.210938 8.738281 4.304688 8.71875 4.402344 8.695312 C 4.433594 8.6875 4.46875 8.679688 4.5 8.667969 C 4.625 8.632812 4.742188 8.589844 4.859375 8.539062 C 4.878906 8.53125 4.894531 8.523438 4.910156 8.515625 C 5.011719 8.46875 5.105469 8.421875 5.199219 8.367188 C 5.234375 8.347656 5.265625 8.328125 5.296875 8.308594 C 5.378906 8.253906 5.460938 8.199219 5.542969 8.136719 C 5.5625 8.121094 5.585938 8.105469 5.609375 8.085938 C 5.707031 8.007812 5.796875 7.925781 5.886719 7.835938 C 5.90625 7.816406 5.921875 7.792969 5.941406 7.773438 C 6.007812 7.699219 6.074219 7.625 6.132812 7.546875 C 6.15625 7.515625 6.179688 7.488281 6.199219 7.457031 C 6.261719 7.371094 6.320312 7.277344 6.375 7.1875 C 6.382812 7.171875 6.394531 7.160156 6.402344 7.148438 C 6.40625 7.160156 6.417969 7.171875 6.425781 7.1875 C 6.480469 7.277344 6.539062 7.371094 6.601562 7.457031 C 6.621094 7.488281 6.644531 7.515625 6.667969 7.546875 C 6.726562 7.625 6.792969 7.703125 6.859375 7.773438 C 6.878906 7.792969 6.894531 7.816406 6.914062 7.835938 C 7.003906 7.925781 7.09375 8.007812 7.191406 8.085938 C 7.214844 8.105469 7.238281 8.121094 7.257812 8.136719 C 7.339844 8.199219 7.421875 8.253906 7.503906 8.308594 C 7.535156 8.328125 7.566406 8.347656 7.601562 8.367188 C 7.695312 8.421875 7.789062 8.46875 7.890625 8.515625 C 7.90625 8.523438 7.921875 8.53125 7.941406 8.539062 C 8.058594 8.589844 8.175781 8.632812 8.300781 8.667969 C 8.332031 8.679688 8.367188 8.683594 8.398438 8.695312 C 8.496094 8.71875 8.589844 8.738281 8.691406 8.753906 C 8.726562 8.761719 8.765625 8.769531 8.800781 8.773438 C 8.933594 8.789062 9.066406 8.800781 9.199219 8.800781 C 9.335938 8.800781 9.46875 8.789062 9.597656 8.773438 C 9.636719 8.769531 9.671875 8.761719 9.710938 8.753906 C 9.808594 8.738281 9.90625 8.71875 10 8.695312 C 10.035156 8.6875 10.066406 8.679688 10.101562 8.667969 C 10.222656 8.632812 10.34375 8.589844 10.460938 8.539062 C 10.476562 8.53125 10.496094 8.523438 10.511719 8.515625 C 10.609375 8.46875 10.707031 8.421875 10.800781 8.367188 C 10.832031 8.347656 10.863281 8.328125 10.894531 8.308594 C 10.980469 8.253906 11.0625 8.199219 11.140625 8.136719 C 11.164062 8.121094 11.1875 8.105469 11.207031 8.085938 C 11.304688 8.007812 11.398438 7.925781 11.484375 7.835938 C 11.503906 7.816406 11.523438 7.792969 11.542969 7.773438 C 11.609375 7.699219 11.671875 7.625 11.734375 7.546875 C 11.757812 7.515625 11.777344 7.488281 11.800781 7.457031 C 11.863281 7.371094 11.921875 7.277344 11.976562 7.1875 C 11.984375 7.171875 11.992188 7.160156 12 7.148438 C 12.007812 7.160156 12.019531 7.171875 12.023438 7.1875 C 12.078125 7.277344 12.136719 7.371094 12.199219 7.457031 C 12.222656 7.488281 12.242188 7.515625 12.265625 7.546875 C 12.328125 7.625 12.390625 7.703125 12.460938 7.773438 C 12.476562 7.792969 12.496094 7.816406 12.515625 7.835938 C 12.601562 7.925781 12.695312 8.007812 12.792969 8.085938 C 12.8125 8.105469 12.835938 8.121094 12.859375 8.136719 C 12.9375 8.199219 13.019531 8.253906 13.105469 8.308594 C 13.136719 8.328125 13.167969 8.347656 13.199219 8.367188 C 13.292969 8.421875 13.390625 8.46875 13.488281 8.515625 C 13.507812 8.523438 13.523438 8.53125 13.539062 8.539062 C 13.65625 8.589844 13.777344 8.632812 13.898438 8.667969 C 13.933594 8.679688 13.964844 8.683594 14 8.695312 C 14.09375 8.71875 14.191406 8.738281 14.289062 8.753906 C 14.328125 8.761719 14.363281 8.769531 14.402344 8.773438 C 14.53125 8.789062 14.664062 8.800781 14.800781 8.800781 C 14.933594 8.800781 15.066406 8.789062 15.199219 8.773438 C 15.234375 8.769531 15.273438 8.761719 15.308594 8.753906 C 15.410156 8.738281 15.507812 8.71875 15.601562 8.695312 C 15.636719 8.6875 15.667969 8.679688 15.699219 8.667969 C 15.824219 8.632812 15.945312 8.589844 16.058594 8.539062 C 16.078125 8.53125 16.09375 8.523438 16.113281 8.515625 C 16.210938 8.46875 16.308594 8.421875 16.402344 8.367188 C 16.433594 8.347656 16.464844 8.328125 16.496094 8.308594 C 16.582031 8.253906 16.660156 8.199219 16.742188 8.136719 C 16.761719 8.121094 16.785156 8.105469 16.808594 8.085938 C 16.90625 8.007812 16.996094 7.925781 17.085938 7.835938 C 17.105469 7.816406 17.121094 7.792969 17.140625 7.773438 C 17.210938 7.699219 17.273438 7.625 17.335938 7.546875 C 17.355469 7.515625 17.378906 7.488281 17.402344 7.457031 C 17.464844 7.371094 17.523438 7.277344 17.574219 7.1875 C 17.582031 7.171875 17.59375 7.160156 17.601562 7.148438 C 17.609375 7.160156 17.617188 7.171875 17.625 7.1875 C 17.679688 7.277344 17.738281 7.371094 17.800781 7.457031 C 17.820312 7.488281 17.84375 7.515625 17.867188 7.546875 C 17.925781 7.625 17.992188 7.703125 18.058594 7.773438 C 18.078125 7.792969 18.097656 7.816406 18.117188 7.835938 C 18.203125 7.925781 18.296875 8.007812 18.394531 8.085938 C 18.414062 8.105469 18.4375 8.121094 18.460938 8.136719 C 18.539062 8.199219 18.621094 8.253906 18.707031 8.308594 C 18.738281 8.328125 18.769531 8.347656 18.800781 8.367188 C 18.894531 8.421875 18.988281 8.46875 19.089844 8.515625 C 19.105469 8.523438 19.125 8.53125 19.140625 8.539062 C 19.257812 8.589844 19.378906 8.632812 19.5 8.667969 C 19.53125 8.679688 19.566406 8.683594 19.597656 8.695312 C 19.695312 8.71875 19.792969 8.738281 19.890625 8.753906 C 19.925781 8.761719 19.964844 8.769531 20.003906 8.773438 C 20.132812 8.789062 20.265625 8.800781 20.398438 8.800781 L 20.800781 8.800781 C 20.914062 8.800781 21.027344 8.792969 21.140625 8.78125 C 21.175781 8.777344 21.214844 8.769531 21.25 8.765625 C 21.324219 8.753906 21.398438 8.742188 21.472656 8.726562 C 21.515625 8.71875 21.554688 8.707031 21.597656 8.695312 C 21.660156 8.679688 21.726562 8.664062 21.789062 8.640625 C 21.832031 8.628906 21.875 8.609375 21.917969 8.59375 C 21.976562 8.574219 22.035156 8.550781 22.09375 8.523438 C 22.136719 8.503906 22.179688 8.484375 22.21875 8.464844 C 22.273438 8.4375 22.328125 8.410156 22.382812 8.378906 C 22.421875 8.355469 22.464844 8.328125 22.503906 8.304688 C 22.554688 8.273438 22.605469 8.238281 22.652344 8.203125 C 22.691406 8.175781 22.730469 8.148438 22.765625 8.117188 C 22.8125 8.082031 22.859375 8.042969 22.902344 8.003906 C 22.941406 7.972656 22.976562 7.941406 23.011719 7.90625 C 23.054688 7.867188 23.09375 7.824219 23.136719 7.777344 C 23.15625 7.757812 23.179688 7.738281 23.199219 7.714844 Z M 20.800781 8 L 20.398438 8 C 19.078125 8 18 6.921875 18 5.601562 L 18 5.199219 L 23.199219 5.199219 L 23.199219 5.601562 C 23.199219 6.921875 22.125 8 20.800781 8 Z M 20.800781 8"/>
    <path d="M 1.601562 21.199219 L 14.800781 21.199219 L 14.800781 10 L 1.601562 10 Z M 2.398438 10.800781 L 14 10.800781 L 14 20.398438 L 2.398438 20.398438 Z M 2.398438 10.800781"/>
    <path d="M6 15.199219C6.101562 15.199219 6.203125 15.160156 6.28125 15.082031L7.882812 13.484375C8.039062 13.328125 8.039062 13.074219 7.882812 12.917969 7.726562 12.761719 7.472656 12.761719 7.316406 12.917969L5.71875 14.515625C5.5625 14.671875 5.5625 14.925781 5.71875 15.082031 5.796875 15.160156 5.898438 15.199219 6 15.199219zM6 17.199219C6.101562 17.199219 6.203125 17.160156 6.28125 17.082031L7.082031 16.28125C7.238281 16.125 7.238281 15.875 7.082031 15.71875 6.925781 15.5625 6.671875 15.5625 6.515625 15.71875L5.71875 16.515625C5.5625 16.671875 5.5625 16.925781 5.71875 17.082031 5.796875 17.160156 5.898438 17.199219 6 17.199219zM7.316406 14.914062C7.242188 14.992188 7.199219 15.097656 7.199219 15.199219 7.199219 15.304688 7.242188 15.40625 7.316406 15.484375 7.390625 15.554688 7.496094 15.601562 7.601562 15.601562 7.703125 15.601562 7.808594 15.554688 7.882812 15.484375 7.957031 15.40625 8 15.304688 8 15.199219 8 15.097656 7.957031 14.992188 7.882812 14.914062 7.734375 14.769531 7.464844 14.769531 7.316406 14.914062zM8.117188 14.683594C8.195312 14.761719 8.296875 14.800781 8.398438 14.800781 8.503906 14.800781 8.605469 14.761719 8.683594 14.683594L9.882812 13.484375C10.039062 13.328125 10.039062 13.074219 9.882812 12.917969 9.726562 12.761719 9.472656 12.761719 9.316406 12.917969L8.117188 14.117188C7.960938 14.273438 7.960938 14.527344 8.117188 14.683594zM9.316406 14.917969L5.71875 18.515625C5.5625 18.671875 5.5625 18.925781 5.71875 19.082031 5.796875 19.160156 5.898438 19.199219 6 19.199219 6.101562 19.199219 6.203125 19.160156 6.28125 19.082031L9.882812 15.484375C10.039062 15.328125 10.039062 15.074219 9.882812 14.917969 9.726562 14.761719 9.472656 14.761719 9.316406 14.917969zM10.117188 14.117188C10.042969 14.191406 10 14.292969 10 14.398438 10 14.507812 10.042969 14.609375 10.117188 14.683594 10.191406 14.757812 10.292969 14.800781 10.398438 14.800781 10.507812 14.800781 10.609375 14.757812 10.679688 14.683594 10.757812 14.609375 10.800781 14.503906 10.800781 14.398438 10.800781 14.292969 10.757812 14.191406 10.683594 14.117188 10.535156 13.96875 10.265625 13.96875 10.117188 14.117188zM3.199219 21.601562L2.800781 21.601562C2.578125 21.601562 2.398438 21.777344 2.398438 22 2.398438 22.222656 2.578125 22.398438 2.800781 22.398438L3.199219 22.398438C3.421875 22.398438 3.601562 22.222656 3.601562 22 3.601562 21.777344 3.421875 21.601562 3.199219 21.601562zM1.199219 22.398438L1.601562 22.398438C1.820312 22.398438 2 22.222656 2 22 2 21.777344 1.820312 21.601562 1.601562 21.601562L1.199219 21.601562C.980469 21.601562.800781 21.777344.800781 22 .800781 22.222656.980469 22.398438 1.199219 22.398438zM6.398438 21.601562L6 21.601562C5.777344 21.601562 5.601562 21.777344 5.601562 22 5.601562 22.222656 5.777344 22.398438 6 22.398438L6.398438 22.398438C6.621094 22.398438 6.800781 22.222656 6.800781 22 6.800781 21.777344 6.621094 21.601562 6.398438 21.601562zM4.800781 21.601562L4.398438 21.601562C4.179688 21.601562 4 21.777344 4 22 4 22.222656 4.179688 22.398438 4.398438 22.398438L4.800781 22.398438C5.019531 22.398438 5.199219 22.222656 5.199219 22 5.199219 21.777344 5.019531 21.601562 4.800781 21.601562zM9.601562 21.601562L9.199219 21.601562C8.980469 21.601562 8.800781 21.777344 8.800781 22 8.800781 22.222656 8.980469 22.398438 9.199219 22.398438L9.601562 22.398438C9.820312 22.398438 10 22.222656 10 22 10 21.777344 9.820312 21.601562 9.601562 21.601562zM8 21.601562L7.601562 21.601562C7.378906 21.601562 7.199219 21.777344 7.199219 22 7.199219 22.222656 7.378906 22.398438 7.601562 22.398438L8 22.398438C8.222656 22.398438 8.398438 22.222656 8.398438 22 8.398438 21.777344 8.222656 21.601562 8 21.601562zM12.800781 21.601562L12.398438 21.601562C12.179688 21.601562 12 21.777344 12 22 12 22.222656 12.179688 22.398438 12.398438 22.398438L12.800781 22.398438C13.019531 22.398438 13.199219 22.222656 13.199219 22 13.199219 21.777344 13.019531 21.601562 12.800781 21.601562zM11.199219 21.601562L10.800781 21.601562C10.578125 21.601562 10.398438 21.777344 10.398438 22 10.398438 22.222656 10.578125 22.398438 10.800781 22.398438L11.199219 22.398438C11.421875 22.398438 11.601562 22.222656 11.601562 22 11.601562 21.777344 11.421875 21.601562 11.199219 21.601562zM14.398438 21.601562L14 21.601562C13.777344 21.601562 13.601562 21.777344 13.601562 22 13.601562 22.222656 13.777344 22.398438 14 22.398438L14.398438 22.398438C14.621094 22.398438 14.800781 22.222656 14.800781 22 14.800781 21.777344 14.621094 21.601562 14.398438 21.601562zM14.398438 21.601562"/>
</svg>

<svg xmlns="http://www.w3.org/2000/svg" width="32" height="32" viewBox="0 0 24 24">
    <path d="M23.965 4.684a.735.735 0 0 0-.02-.13l-.058.016v-.004l.058-.015A6.178 6.178 0 0 0 18.801.055V0H6A6.18 6.18 0 0 0 .059 4.543a.414.414 0 0 0-.02.137.483.483 0 0 0-.039.183V24h24V4.863a.46.46 0 0 0-.035-.18zM18.37.816a5.374 5.374 0 0 1 4.692 3.582h-5.145A5.745 5.745 0 0 0 15.254.801h2.738zM17.2 5.602A2.401 2.401 0 0 1 14.801 8a2.405 2.405 0 0 1-2.403-2.398v-.403H17.2zM6.801 5.199h4.8v.403A2.405 2.405 0 0 1 9.2 8a2.401 2.401 0 0 1-2.398-2.398zM12.398.801a4.955 4.955 0 0 1 4.7 3.597h-4.7zm-.796 3.597h-4.7a4.955 4.955 0 0 1 4.7-3.597zM6.008.801h2.738a5.745 5.745 0 0 0-2.664 3.597H.938A5.39 5.39 0 0 1 6.008.801zM.8 5.199H6v.403A2.404 2.404 0 0 1 3.602 8h-.403A2.401 2.401 0 0 1 .801 5.602zm20.8 12.403h-5.203v-4.204a2.602 2.602 0 0 1 5.204 0zm-5.203 5.597v-4.8h5.204v4.8zM23.2 7.715v15.484h-.8v-9.8A3.4 3.4 0 0 0 19 10a3.4 3.4 0 0 0-3.398 3.398v8.204a.398.398 0 1 0 0 .796v.403h-.403a.4.4 0 0 0-.398.398h-.403a.398.398 0 0 0-.398-.398h-.398a.401.401 0 0 0-.403.398h-.398a.401.401 0 0 0-.403-.398H12a.398.398 0 0 0-.398.398h-.403a.4.4 0 0 0-.398-.398h-.403a.4.4 0 0 0-.398.398h-.398a.401.401 0 0 0-.403-.398h-.398a.401.401 0 0 0-.403.398H8a.4.4 0 0 0-.398-.398h-.403a.4.4 0 0 0-.398.398h-.403A.398.398 0 0 0 6 22.801h-.398a.401.401 0 0 0-.403.398h-.398a.401.401 0 0 0-.403-.398H4a.398.398 0 0 0-.398.398h-.403a.4.4 0 0 0-.398-.398h-.403a.4.4 0 0 0-.398.398h-.398a.401.401 0 0 0-.403-.398H.801V7.715c.02.023.043.043.062.066.043.043.082.086.125.125.035.035.07.067.106.098.047.039.093.078.14.113.036.031.075.059.114.086.047.035.097.07.148.102.04.023.082.05.121.074.055.031.11.059.164.086.04.02.082.043.125.058.059.028.117.051.176.07.043.016.086.036.129.048.062.023.129.039.191.054.043.012.082.024.125.032.075.015.149.027.223.039.035.004.07.011.11.015.113.012.226.02.34.02h.402c.132 0 .265-.012.398-.028a1.07 1.07 0 0 0 .11-.02c.1-.015.195-.034.292-.058.032-.008.067-.015.098-.027a2.804 2.804 0 0 0 .41-.152c.102-.047.195-.094.29-.149l.097-.058c.082-.055.164-.11.246-.172l.066-.051c.098-.078.188-.16.278-.25.02-.02.035-.043.054-.063.067-.074.133-.148.192-.226.023-.031.047-.059.066-.09a3.98 3.98 0 0 0 .176-.27c.008-.015.02-.027.027-.039.004.012.016.024.024.04.054.09.113.183.176.269.02.031.043.059.066.09.059.078.125.156.191.226.02.02.036.043.055.063.09.09.18.172.277.25.024.02.047.035.067.05.082.063.164.118.246.173a3.348 3.348 0 0 0 .797.36c.031.01.066.015.097.026.098.024.192.043.293.059.036.008.075.016.11.02.133.015.265.027.398.027a3.3 3.3 0 0 0 .399-.028c.039-.003.074-.011.113-.02a3.44 3.44 0 0 0 .39-.085c.122-.035.243-.078.36-.129l.05-.023c.098-.047.196-.094.29-.149l.094-.058c.085-.055.168-.11.246-.172.023-.016.046-.032.066-.051.098-.078.191-.16.277-.25l.059-.063c.066-.074.129-.148.191-.226l.067-.09c.062-.086.12-.18.176-.27.007-.015.015-.027.023-.039.008.012.02.024.023.04.055.09.114.183.176.269l.067.09c.062.078.125.156.195.226.016.02.035.043.055.063.086.09.18.172.277.25.02.02.043.035.066.05.079.063.16.118.246.173l.094.058a4.032 4.032 0 0 0 .34.172c.117.05.238.094.36.129.035.012.066.016.101.027.094.024.191.043.29.059.038.008.073.016.112.02a3.3 3.3 0 0 0 .399.027c.133 0 .265-.012.398-.028a1.07 1.07 0 0 0 .11-.02 3.237 3.237 0 0 0 .39-.085c.125-.035.246-.078.36-.129.02-.008.035-.016.054-.023.098-.047.196-.094.29-.149.03-.02.062-.039.093-.058.086-.055.164-.11.246-.172l.067-.051c.097-.078.187-.16.277-.25.02-.02.035-.043.055-.063.07-.074.132-.148.195-.226.02-.031.043-.059.066-.09.063-.086.121-.18.172-.27.008-.015.02-.027.028-.039a3.98 3.98 0 0 0 .2.309c.018.031.042.059.065.09.059.078.125.156.192.226.02.02.039.043.058.063.086.09.18.172.278.25.02.02.043.035.066.05.078.063.16.118.246.173l.094.058c.094.055.187.102.289.149l.05.023c.118.05.239.094.36.129.031.012.066.016.098.027.097.024.195.043.293.059a.976.976 0 0 0 .113.02c.129.015.262.027.394.027h.403c.113 0 .226-.008.34-.02l.109-.015c.074-.012.148-.024.223-.04.043-.007.082-.019.125-.03.062-.016.129-.032.191-.055.043-.012.086-.032.129-.047.059-.02.117-.043.176-.07a3.305 3.305 0 0 0 .29-.145l.12-.074c.05-.032.101-.067.148-.102.04-.027.078-.055.114-.086.047-.035.093-.074.136-.113a1.3 1.3 0 0 0 .11-.098c.043-.039.082-.082.125-.129.02-.02.043-.039.062-.062zM20.801 8h-.403A2.404 2.404 0 0 1 18 5.602v-.403h5.2v.403A2.401 2.401 0 0 1 20.8 8zm0 0"/>
    <path d="M1.602 21.2H14.8V10H1.6zm.796-10.4H14v9.598H2.398zm0 0"/>
    <path d="M6 15.2c.102 0 .203-.04.281-.118l1.602-1.598a.4.4 0 0 0-.567-.566L5.72 14.516a.4.4 0 0 0 .281.683zm0 0M6 17.2c.102 0 .203-.04.281-.118l.801-.8a.396.396 0 0 0 0-.563.4.4 0 0 0-.566 0l-.797.797a.4.4 0 0 0 .281.683zm0 0M7.316 14.914a.423.423 0 0 0-.117.285c0 .106.043.207.117.285.075.07.18.118.286.118a.424.424 0 0 0 .28-.118A.416.416 0 0 0 8 15.2a.423.423 0 0 0-.117-.285.424.424 0 0 0-.567 0zm0 0M8.117 14.684a.399.399 0 0 0 .566 0l1.2-1.2a.4.4 0 0 0-.567-.566l-1.199 1.2a.4.4 0 0 0 0 .566zm0 0M9.316 14.918L5.72 18.516a.4.4 0 0 0 .281.683c.102 0 .203-.039.281-.117l3.602-3.598a.4.4 0 0 0-.567-.566zm0 0M10.117 14.117a.4.4 0 0 0 .563.567.396.396 0 0 0 .004-.567.416.416 0 0 0-.567 0zm0 0M3.2 21.602h-.4a.398.398 0 1 0 0 .796h.4a.398.398 0 1 0 0-.796zm0 0M1.2 22.398h.402a.398.398 0 1 0 0-.796h-.403a.398.398 0 1 0 0 .796zm0 0M6.398 21.602H6a.395.395 0 0 0-.398.398c0 .223.175.398.398.398h.398a.398.398 0 1 0 0-.796zm0 0M4.8 21.602h-.402a.398.398 0 1 0 0 .796h.403a.398.398 0 1 0 0-.796zm0 0M9.602 21.602h-.403a.398.398 0 1 0 0 .796h.403a.398.398 0 1 0 0-.796zm0 0M8 21.602h-.398a.398.398 0 1 0 0 .796H8A.395.395 0 0 0 8.398 22 .395.395 0 0 0 8 21.602zm0 0M12.8 21.602h-.402a.398.398 0 1 0 0 .796h.403a.398.398 0 1 0 0-.796zm0 0M11.2 21.602h-.4a.398.398 0 1 0 0 .796h.4a.398.398 0 1 0 0-.796zm0 0M14.398 21.602H14a.395.395 0 0 0-.398.398c0 .223.175.398.398.398h.398a.398.398 0 1 0 0-.796zm0 0"/>
</svg>
